resources/AirPollution-SVG/pollution_sedanside.svg

<svg height="11.961" width="37.668" xmlns="http://www.w3.org/2000/svg"><g transform="translate(-281.164 -174.02)"><path d="M282.067 185.54c0 .244 7.89.442 17.623.442 9.732 0 17.623-.198 17.623-.442 0-.106-2.32-.839-4.799-.915-3.231-.1-6.125-.04-11.633-.04-5.881 0-10.775.008-13.976.119-2.095.072-4.838.739-4.838.836z" fill="#515251"/><circle r="2.734" cy="182.423" cx="288.624" fill="#262626"/><circle r="2.734" cy="182.621" cx="309.729" fill="#262626"/><path d="M282.292 183.798s.396.255.679.311c.285.057 2.975.085 2.975.085s4.76.085 5.354-.396c0 0 .058.311.285.311.226 0 15.949-.028 15.949-.028l5.242-.283s.791-.113 1.246-.113c.452 0 2.096-.028 2.209-.114.113-.084.312-.424.312-.424l-2.918-.199s.454-2.493-2.605-3.258l-3.74.595-.99 2.352-14.45.624s-.367-3.654-2.378-3.797c-2.012-.141-3.909.681-3.909.681l-.907 2.804-2.354.849z" fill="#262626"/><path d="M284.914 183.95s-.199-1.069.372-2.384c.571-1.316 1.886-1.738 2.757-1.688.868.049 2.109.422 2.705 1.663.596 1.242.398 2.31.398 2.31s9.758-.025 10.628-.05c.869-.024 5.438.025 5.438.025s-.124-1.565.422-2.483c.547-.918 1.962-1.912 3.874-1.242 1.911.67 1.937 2.658 1.911 3.427 0 0 3.95-.248 4.421-.422.473-.174.719-.421.869-.845.148-.421.123-1.712.123-1.712l-.867-.82s.197-2.085-.225-2.508c0 0-2.955-.272-3.401-.297-.446-.025-6.062-2.491-6.681-2.732s-3.014-.167-5.918-.141c-2.235.018-4.33.265-4.696.376-.366.112-5.849 3.143-5.849 3.143s-8.049 1.194-8.309 1.385c-.26.191-1.574 1.197-1.401 1.917l-.321.521s.023 1.913.173 2.136c.148.223.571.347.571.347l3.006.074z" fill="#2C3E50"/><path d="M300.032 183.277c-.048-1.392.826-5.627.834-5.67l.055.012c-.008.043-.878 4.271-.833 5.657l-.056.001z" fill="#262626"/><circle r="2.733" cy="182.905" cx="310.381" fill="#262626"/><circle r="2.734" cy="182.876" cx="288.086" fill="#262626"/><path d="M291.912 178.06s1.133-.962 1.954-1.501c.822-.538 2.734-1.6 3.401-1.7.664-.099 2.832-.397 4.445-.354 1.615.043 3.5.028 4.449.213.948.184 4.178 1.601 4.207 1.884.027.283-.623.778-.806.821-.184.042-17.65.765-17.65.637z" fill="#262626"/><path d="M292.647 177.778s1.883-1.332 2.606-1.7c.721-.368 2.039-1.048 3.33-1.147 1.286-.099 5.935-.184 6.981-.071 1.05.113 4.562 1.629 4.518 1.842-.043.213-.452.481-.58.495-.128.015-7.904.298-8.57.312-.664.014-8.243.326-8.285.269z" fill="#A3A2A2"/><path d="M300.65 174.731l-.722 2.934 1.616-.058.394-2.946z" fill="#262626"/><path d="M281.788 180.564c-.054-.102.208-.53.419-.78.22-.26.82-.601.82-.601s2.092-.418 2.12-.22l-.791 1.338s-2.515.365-2.568.263z" fill="#EAEAEA"/><path d="M298.979 178.67s-.143.566.056.566.652.057.723-.042c.071-.1.071-.51.071-.51l-.85-.014z" fill="#262626"/><path d="M298.553 178.74s.156.071.737.085c.58.015.65-.099.65-.099l.412.028s.016.284-.282.312c-.298.028-1.233.07-1.417-.015-.184-.083-.1-.311-.1-.311z" fill="#426486"/><path d="M305.72 178.537s-.141.566.057.566c.199 0 .652.056.723-.042.07-.1.07-.51.07-.51l-.85-.014z" fill="#262626"/><path d="M305.296 178.607s.155.071.736.085c.579.014.65-.099.65-.099l.412.028s.014.283-.283.311c-.298.029-1.232.071-1.417-.014-.184-.084-.098-.311-.098-.311z" fill="#426486"/><path d="M293.058 178.146s-.128-.751.241-.992c.369-.24.694-.34 1.034.042.34.383-.015.61-.071.666-.056.057-.877.057-.877.057l-.043.212-.284.015z" fill="#2C3E50"/><path d="M316.982 177.607s-.793.822-.722 1.049c.07.227.396.523.396.523h1.346s.016-1.413-.068-1.499c-.085-.084-.724-.144-.952-.073z" fill="#D84828"/><circle r="2.41" cy="182.905" cx="310.382" fill="#EAEAEA"/><circle r=".159" cy="182.48" cx="310.371"/><circle r=".16" cy="183.33" cx="310.392"/><circle r=".16" cy="182.915" cx="309.956"/><circle r=".159" cy="182.894" cx="310.807"/><path d="M309.246 181.052l.872.975-.06-1.279zm1.483 4.01l-.018-1.308.821.982zm-2.513-2.09l1.279-.268-1.139-.587zm4.213.721l-1.141-.639 1.26-.22zm-3.068 1.132l.41-1.242-1.081.69zm2.732-3.289l-1.124.67.44-1.204z"/><circle r="2.41" cy="182.876" cx="288.086" fill="#EAEAEA"/><circle r=".159" cy="182.452" cx="288.075"/><circle r=".159" cy="183.302" cx="288.096"/><circle r=".16" cy="182.887" cx="287.661"/><circle r=".16" cy="182.866" cx="288.511"/><path d="M286.95 181.024l.873.975-.06-1.279zm1.482 4.01l-.017-1.308.821.982zm-2.512-2.091l1.279-.267-1.137-.588zm4.212.722l-1.14-.639 1.259-.221zm-3.066 1.132l.408-1.243-1.078.692zm2.731-3.289l-1.123.669.439-1.202z"/><path d="M291.146 183.268l16.05.037v.056l-16.05-.037z" fill="#262626"/></g></svg>

<svg height="11.9609375" width="37.66796875" xmlns="http://www.w3.org/2000/svg"><g transform="translate(-281.1640625 -174.01953125)"><path d="M282.067 185.54c0 .244 7.89.442 17.623.442 9.732 0 17.623-.198 17.623-.442 0-.106-2.32-.839-4.799-.915-3.231-.1-6.125-.04-11.633-.04-5.881 0-10.775.008-13.976.119-2.095.072-4.838.739-4.838.836z" fill="#515251"/><circle r="2.734" cy="182.423" cx="288.624" fill="#262626"/><circle r="2.734" cy="182.621" cx="309.729" fill="#262626"/><path d="M282.292 183.798s.396.255.679.311c.285.057 2.975.085 2.975.085s4.76.085 5.354-.396c0 0 .058.311.285.311.226 0 15.949-.028 15.949-.028l5.242-.283s.791-.113 1.246-.113c.452 0 2.096-.028 2.209-.114.113-.084.312-.424.312-.424l-2.918-.199s.454-2.493-2.605-3.258l-3.74.595-.99 2.352-14.45.624s-.367-3.654-2.378-3.797c-2.012-.141-3.909.681-3.909.681l-.907 2.804-2.354.849z" fill="#262626"/><path d="M284.914 183.95s-.199-1.069.372-2.384c.571-1.316 1.886-1.738 2.757-1.688.868.049 2.109.422 2.705 1.663.596 1.242.398 2.31.398 2.31s9.758-.025 10.628-.05c.869-.024 5.438.025 5.438.025s-.124-1.565.422-2.483c.547-.918 1.962-1.912 3.874-1.242 1.911.67 1.937 2.658 1.911 3.427 0 0 3.95-.248 4.421-.422.473-.174.719-.421.869-.845.148-.421.123-1.712.123-1.712l-.867-.82s.197-2.085-.225-2.508c0 0-2.955-.272-3.401-.297-.446-.025-6.062-2.491-6.681-2.732s-3.014-.167-5.918-.141c-2.235.018-4.33.265-4.696.376-.366.112-5.849 3.143-5.849 3.143s-8.049 1.194-8.309 1.385c-.26.191-1.574 1.197-1.401 1.917l-.321.521s.023 1.913.173 2.136c.148.223.571.347.571.347l3.006.074z" fill="#2C3E50"/><path d="M300.032 183.277c-.048-1.392.826-5.627.834-5.67l.055.012c-.008.043-.878 4.271-.833 5.657l-.056.001z" fill="#262626"/><circle r="2.733" cy="182.905" cx="310.381" fill="#262626"/><circle r="2.734" cy="182.876" cx="288.086" fill="#262626"/><path d="M291.912 178.06s1.133-.962 1.954-1.501c.822-.538 2.734-1.6 3.401-1.7.664-.099 2.832-.397 4.445-.354 1.615.043 3.5.028 4.449.213.948.184 4.178 1.601 4.207 1.884.027.283-.623.778-.806.821-.184.042-17.65.765-17.65.637z" fill="#262626"/><path d="M292.647 177.778s1.883-1.332 2.606-1.7c.721-.368 2.039-1.048 3.33-1.147 1.286-.099 5.935-.184 6.981-.071 1.05.113 4.562 1.629 4.518 1.842-.043.213-.452.481-.58.495-.128.015-7.904.298-8.57.312-.664.014-8.243.326-8.285.269z" fill="#A3A2A2"/><path d="M300.65 174.731l-.722 2.934 1.616-.058.394-2.946z" fill="#262626"/><path d="M281.788 180.564c-.054-.102.208-.53.419-.78.22-.26.82-.601.82-.601s2.092-.418 2.12-.22l-.791 1.338s-2.515.365-2.568.263z" fill="#EAEAEA"/><path d="M298.979 178.67s-.143.566.056.566.652.057.723-.042c.071-.1.071-.51.071-.51l-.85-.014z" fill="#262626"/><path d="M298.553 178.74s.156.071.737.085c.58.015.65-.099.65-.099l.412.028s.016.284-.282.312c-.298.028-1.233.07-1.417-.015-.184-.083-.1-.311-.1-.311z" fill="#426486"/><path d="M305.72 178.537s-.141.566.057.566c.199 0 .652.056.723-.042.07-.1.07-.51.07-.51l-.85-.014z" fill="#262626"/><path d="M305.296 178.607s.155.071.736.085c.579.014.65-.099.65-.099l.412.028s.014.283-.283.311c-.298.029-1.232.071-1.417-.014-.184-.084-.098-.311-.098-.311z" fill="#426486"/><path d="M293.058 178.146s-.128-.751.241-.992c.369-.24.694-.34 1.034.042.34.383-.015.61-.071.666-.056.057-.877.057-.877.057l-.043.212-.284.015z" fill="#2C3E50"/><path d="M316.982 177.607s-.793.822-.722 1.049c.07.227.396.523.396.523h1.346s.016-1.413-.068-1.499c-.085-.084-.724-.144-.952-.073z" fill="#D84828"/><circle r="2.41" cy="182.905" cx="310.382" fill="#EAEAEA"/><circle r=".159" cy="182.48" cx="310.371"/><circle r=".16" cy="183.33" cx="310.392"/><circle r=".16" cy="182.915" cx="309.956"/><circle r=".159" cy="182.894" cx="310.807"/><path d="M309.246 181.052l.872.975-.06-1.279zM310.729 185.062l-.018-1.308.821.982zM308.216 182.972l1.279-.268-1.139-.587zM312.429 183.693l-1.141-.639 1.26-.22zM309.361 184.825l.41-1.242-1.081.69zM312.093 181.536l-1.124.67.44-1.204z"/><circle r="2.41" cy="182.876" cx="288.086" fill="#EAEAEA"/><circle r=".159" cy="182.452" cx="288.075"/><circle r=".159" cy="183.302" cx="288.096"/><circle r=".16" cy="182.887" cx="287.661"/><circle r=".16" cy="182.866" cx="288.511"/><path d="M286.95 181.024l.873.975-.06-1.279zM288.432 185.034l-.017-1.308.821.982zM285.92 182.943l1.279-.267-1.137-.588zM290.132 183.665l-1.14-.639 1.259-.221zM287.066 184.797l.408-1.243-1.078.692zM289.797 181.508l-1.123.669.439-1.202z"/><path d="M291.146 183.268l16.05.037v.056l-16.05-.037z" fill="#262626"/></g></svg>
